packages/icons/svg/Outline/triangle-left.svg

<svg fill="none" height="24" viewBox="0 0 24 24" width="24" xmlns="http://www.w3.org/2000/svg"><path clip-rule="evenodd" d="m8.67818 12.0023 4.82202 3.983v-7.89299zm4.86602 5.9989c-.471 0-.935-.157-1.303-.461l-5.10002-4.214c-.407-.336-.641-.82-.641-1.326s.234-.99.641-1.326l5.10002-4.21295c.608-.504 1.475-.605 2.209-.26.647.306 1.05.913 1.05 1.586v8.42595c0 .673-.403 1.28-1.05 1.586-.289.136-.599.202-.906.202z" fill="#6b7280" fill-rule="evenodd"/></svg>

<svg width="24" height="24" viewBox="0 0 24 24" fill="none" xmlns="http://www.w3.org/2000/svg">
<g id="Icon/Outline/triangle-left">
<path id="Mask" fill-rule="evenodd" clip-rule="evenodd" d="M8.67824 12.002L13.5002 15.985V8.09201L8.67824 12.002ZM13.5442 18.001C13.0732 18.001 12.6092 17.844 12.2412 17.54L7.14124 13.326C6.73424 12.99 6.50024 12.506 6.50024 12C6.50024 11.494 6.73424 11.01 7.14124 10.674L12.2412 6.46101C12.8492 5.95701 13.7162 5.85601 14.4502 6.20101C15.0972 6.50701 15.5002 7.11401 15.5002 7.78701V16.213C15.5002 16.886 15.0972 17.493 14.4502 17.799C14.1612 17.935 13.8512 18.001 13.5442 18.001Z" fill="#000000"/>
</g>
</svg>
